src/images/crypto-icon-svg/edoge.svg

<svg xmlns="http://www.w3.org/2000/svg" width="32" height="32" viewBox="0 0 32 32">
  <g fill="none">
    <circle cx="16" cy="16" r="16" fill="#0FACF3"/>
    <path fill="#FFF" d="M9.47149597,9.01564778 L14.9031635,9.01564778 C17.0566897,9.01564778 18.1274938,8.94773205 19.7338806,9.0948828 C21.3402674,9.26467213 22.9466542,9.92119087 23.9867607,11.1776319 C25.2117751,12.6378201 25.5700341,14.6073764 25.4891369,16.4411011 C25.4082397,18.2635066 24.7841758,20.1764663 23.3511401,21.4215881 C22.0798987,22.5648362 20.3001609,22.9836499 18.6128769,22.9949692 C15.3307629,23.0062885 12.0602056,22.9949692 8.7780916,22.9949692 C8.41983268,22.9723306 8.0153468,23.0062885 7.73798505,22.7572641 C7.25260199,22.2705347 7.54152048,21.2291602 8.31582203,21.2744373 C10.1417869,21.2178409 11.9793084,21.2744373 13.8052733,21.2404795 C13.7706031,19.7010562 13.7937165,18.161633 13.7937165,16.633529 C12.3837943,16.6222097 10.9854288,16.633529 9.57550663,16.633529 C9.26347466,16.6222097 8.91677248,16.6222097 8.67408095,16.4184625 C8.38516246,16.1581189 8.38516246,15.7166666 8.5122866,15.377088 C8.67408095,15.0035515 9.11323705,14.9356357 9.48305271,14.9356357 C10.9160884,14.9243164 12.3606808,14.9356357 13.7937165,14.9356357 C13.81683,13.5320439 13.7706031,12.1284521 13.81683,10.7361797 C12.2104432,10.7248604 10.6040564,10.7361797 8.99766965,10.7361797 C8.63941073,10.7248604 8.23492485,10.7248604 7.9575631,10.475836 C7.66864462,10.1022995 7.72642831,9.57029293 7.96911984,9.1967564 C8.43138942,8.97037063 8.96299944,9.01564778 9.47149597,9.01564778 Z M15.8045892,14.9356357 C16.4633234,14.946955 17.1220575,14.8903586 17.7807917,14.9809129 C18.5666499,15.0941058 18.5666499,16.475059 17.7692349,16.5882519 C17.1220575,16.6901255 16.4517666,16.6222097 15.7930325,16.633529 C15.8045892,17.9692051 15.7930325,19.2935618 15.7930325,20.6292379 C15.8045892,20.8556237 15.8161459,21.1952023 16.1050644,21.2178409 C16.8909227,21.2857566 17.5755692,21.263118 18.4626393,21.263118 C19.7801076,21.3197145 21.1669163,20.9122201 22.0914555,19.9500806 C23.0391081,18.9426639 23.3858103,17.5390721 23.4089238,16.203396 C23.443594,14.7205692 23.1662322,13.0905917 22.0798987,11.9813014 C21.0975759,10.985204 19.6183132,10.6456253 18.2430612,10.7248604 C17.459099,10.7248604 16.7869121,10.7022218 16.0588375,10.7701375 C15.8277027,10.8380532 15.8161459,11.1210355 15.8045892,11.3247827 L15.8045892,14.9356357 Z"/>
  </g>
</svg>

<svg xmlns="http://www.w3.org/2000/svg" width="32" height="32"><g fill="none"><circle cx="16" cy="16" r="16" fill="#0FACF3"/><path fill="#FFF" d="M9.471 9.016h5.432c2.154 0 3.224-.068 4.83.079 1.607.17 3.214.826 4.254 2.083 1.225 1.46 1.583 3.43 1.502 5.263-.08 1.823-.705 3.735-2.138 4.98-1.271 1.144-3.05 1.563-4.738 1.574-3.282.011-6.553 0-9.835 0-.358-.023-.763.011-1.04-.238-.485-.486-.196-1.528.578-1.483 1.826-.056 3.663 0 5.49-.034-.035-1.539-.012-3.078-.012-4.606-1.41-.012-2.809 0-4.218 0-.313-.012-.66-.012-.902-.216-.289-.26-.289-.701-.162-1.04.162-.374.601-.442.971-.442 1.433-.012 2.878 0 4.31 0 .024-1.404-.022-2.808.024-4.2-1.607-.011-3.213 0-4.82 0-.358-.011-.762-.011-1.04-.26-.288-.374-.23-.906.012-1.28.462-.226.994-.18 1.502-.18zm6.334 5.92c.658.011 1.317-.046 1.976.045.786.113.786 1.494-.012 1.607-.647.102-1.317.034-1.976.046.012 1.335 0 2.66 0 3.995.012.227.023.566.312.589.786.068 1.47.045 2.358.045 1.317.057 2.704-.35 3.628-1.313.948-1.007 1.295-2.41 1.318-3.747.035-1.482-.243-3.112-1.33-4.222-.981-.996-2.46-1.335-3.836-1.256-.784 0-1.456-.023-2.184.045-.231.068-.243.351-.254.555v3.61z"/></g></svg>
